X: 305690
M: 6/8
L: 1/8
K: G
d |\
gfg bag | fed g2d  | efg dcB | Adc B2d |\
gfg bag | fef c'2a | gfe def | a3  g2 H|]
f/g/ |\
age dcA | GBd g2g  | d'c'b bag | b3 a2d |\
efg fga | gab abc' | d'2b c'2a | a3 "^D.C."g2 |]
eBe gfg | bag f2c'  | c'2b a2g | g3 f2B |\
eBe gfg | bab e'2c' | bag  f2e |^d3 "^D.C."e2 |]


